lib/logotmp/nrk-logo-nrk-vestland-with-bg.svg

<svg width="117" height="24" viewBox="0 0 117 24" fill="none" xmlns="http://www.w3.org/2000/svg">
<rect width="117" height="24" fill="#1767CE"/>
<path d="M6 17.9973V5.9984H10V17.9973H6ZM15.2438 7.90809L17.5081 17.9973H13.1992L10.4955 5.9984H12.9122C13.4663 5.99121 14.0041 6.18656 14.4245 6.5477C14.8456 6.8937 15.0849 7.37401 15.2438 7.90809ZM18 17.9973V5.9984H22V17.9973H18ZM25.0105 10.5614C24.5862 10.5655 24.1687 10.4545 23.8025 10.2403C23.4412 10.0314 23.1411 9.73127 22.9323 9.36991C22.7178 9.00364 22.6068 8.58607 22.611 8.16163C22.6061 7.73978 22.7172 7.32469 22.9323 6.96174C23.1433 6.6043 23.4431 6.30741 23.8025 6.09983C24.1689 5.88582 24.5862 5.77483 25.0105 5.7787C25.4322 5.77416 25.8471 5.88524 26.2102 6.09983C26.566 6.30923 26.8626 6.60588 27.072 6.96174C27.2868 7.32479 27.3979 7.73981 27.3933 8.16163C27.3973 8.58604 27.2863 9.00354 27.072 9.36991C26.8649 9.72969 26.5679 10.0296 26.2102 10.2403C25.8471 10.4553 25.4324 10.5664 25.0105 10.5614ZM28 17.9973V5.9984H32V17.9973H28ZM36.9737 12.5555C36.9848 12.5672 37.0693 12.7052 37.2272 12.9696C37.3851 13.234 37.5906 13.572 37.8439 13.9836C38.0974 14.395 38.3649 14.8316 38.6463 15.2933C38.9278 15.755 39.1926 16.1917 39.4408 16.6031C39.6881 17.0145 39.9697 17.4792 40.2857 17.9973H35.9598C35.6893 17.5579 35.4441 17.1608 35.2245 16.8059C35.0048 16.451 34.7713 16.0679 34.5238 15.6567C34.2758 15.2458 34.0306 14.8458 33.7882 14.4568C33.5458 14.0677 33.3375 13.7269 33.1633 13.4344C32.9883 13.1416 32.8671 12.9444 32.7997 12.8428C32.6325 12.5908 32.5336 12.2996 32.5127 11.9979C32.5294 11.7082 32.6226 11.4283 32.7828 11.1864C32.8503 11.0738 32.9743 10.8737 33.1545 10.5864C33.3348 10.2991 33.546 9.95837 33.7882 9.56404C34.0304 9.16971 34.2756 8.76692 34.5238 8.35569C34.772 7.94446 35.0055 7.55855 35.2245 7.19802C35.4445 6.83787 35.6897 6.4379 35.9598 5.99813H40.2857L36.9396 11.4568C36.8361 11.6189 36.7777 11.8057 36.7706 11.9979C36.7818 12.1996 36.8528 12.3936 36.9737 12.5555Z" fill="white"/>
<g clip-path="url(#clip0_5918_1196)">
<path d="M52.1652 6.01H53.9217L49.7501 18.0011H47.5546L43.3999 6.01H45.2915L47.7572 13.4073C47.8923 13.7901 48.0246 14.1983 48.1541 14.6318C48.2836 15.0653 48.4103 15.5016 48.5341 15.9407C48.5989 16.1743 48.6608 16.3967 48.7199 16.6134C48.7762 16.4079 48.8353 16.194 48.8972 15.9744C49.0155 15.5466 49.1393 15.1187 49.2688 14.6909C49.3983 14.263 49.5249 13.8577 49.6488 13.4749L52.1652 6.01ZM61.8172 12.0224C61.958 12.6304 61.9889 13.3285 61.9101 14.1167H55.8076C55.8301 14.5473 55.8892 14.9189 55.9906 15.2313C56.1201 15.6254 56.3115 15.9379 56.5648 16.1687C56.8181 16.3995 57.1306 16.5627 57.5021 16.6584C57.8737 16.7541 58.3128 16.802 58.8195 16.802C59.0672 16.802 59.3149 16.7879 59.5626 16.7598C59.8103 16.7316 60.0523 16.6866 60.2888 16.6247C60.5252 16.5627 60.7532 16.4924 60.9728 16.4136C61.1923 16.3347 61.4091 16.2559 61.623 16.1771L61.5048 17.4776C61.2008 17.6352 60.8968 17.7647 60.5928 17.866C60.2888 17.9673 59.9651 18.0433 59.6217 18.094C59.2783 18.1447 58.8814 18.17 58.431 18.17C57.4852 18.17 56.6858 18.0039 56.0328 17.6718C55.3798 17.3396 54.8872 16.8499 54.555 16.2024C54.2229 15.555 54.0568 14.7697 54.0568 13.8464C54.0568 13.1484 54.1497 12.515 54.3355 11.9464C54.5212 11.3779 54.7915 10.8909 55.1461 10.4856C55.5008 10.0802 55.9315 9.76496 56.4381 9.53978C56.9448 9.31459 57.519 9.202 58.1608 9.202C58.8026 9.202 59.374 9.30896 59.875 9.52289C60.3761 9.73681 60.7898 10.0549 61.1163 10.4771C61.4429 10.8993 61.6765 11.4144 61.8172 12.0224ZM56.0581 11.9296C55.954 12.2054 55.8864 12.5404 55.8442 12.9176H60.286C60.286 12.5798 60.2466 12.2617 60.1621 11.9718C60.0326 11.5214 59.8046 11.1696 59.4781 10.9162C59.1516 10.6629 58.7181 10.5362 58.1777 10.5362C57.6372 10.5362 57.2206 10.6516 56.8603 10.8824C56.5001 11.1133 56.2326 11.4623 56.0581 11.9296ZM69.3581 14.1167C69.1892 13.9365 68.9922 13.7817 68.767 13.6522C68.5418 13.5227 68.3054 13.413 68.0577 13.3229C67.8775 13.2666 67.7002 13.2075 67.5257 13.1456C67.3512 13.0836 67.1766 13.0273 67.0021 12.9767C66.8276 12.926 66.6587 12.8725 66.4955 12.8162C66.3322 12.7599 66.183 12.698 66.0479 12.6304C65.9015 12.5516 65.7692 12.4672 65.651 12.3771C65.5328 12.287 65.4371 12.1801 65.3639 12.0562C65.2907 11.9324 65.2541 11.7916 65.2541 11.634C65.2541 11.4539 65.2935 11.299 65.3723 11.1696C65.4512 11.0401 65.5694 10.9303 65.727 10.8402C65.8846 10.7501 66.0732 10.6826 66.2928 10.6376C66.5124 10.5925 66.7629 10.57 67.0443 10.57C67.1682 10.57 67.3033 10.5756 67.4497 10.5869C67.5961 10.5981 67.7565 10.6179 67.931 10.646C68.1055 10.6741 68.2801 10.7107 68.4546 10.7558C68.6291 10.8008 68.8064 10.8515 68.9866 10.9078C69.1667 10.9641 69.33 11.026 69.4763 11.0936L69.5946 9.72556C69.3806 9.63548 69.1695 9.55667 68.9612 9.48911C68.7529 9.42156 68.5418 9.36526 68.3279 9.32022C68.114 9.27519 67.9029 9.24422 67.6946 9.22733C67.4863 9.21044 67.2808 9.202 67.0781 9.202C66.5715 9.202 66.1098 9.25548 65.6932 9.36244C65.2766 9.46941 64.9135 9.62704 64.6039 9.83533C64.2943 10.0436 64.055 10.3082 63.8861 10.6291C63.7172 10.95 63.6328 11.33 63.6328 11.7691C63.6328 12.0844 63.6778 12.363 63.7679 12.6051C63.858 12.8472 63.9762 13.0527 64.1226 13.2216C64.2689 13.3904 64.4406 13.5396 64.6377 13.6691C64.8347 13.7986 65.0458 13.9084 65.271 13.9984C65.3949 14.0435 65.5243 14.0885 65.6595 14.1336C65.7946 14.1786 65.9269 14.2208 66.0563 14.2602C66.1858 14.2996 66.3125 14.339 66.4363 14.3784C66.5602 14.4179 66.6812 14.4573 66.7995 14.4967C66.9177 14.5361 67.0331 14.5727 67.1457 14.6064C67.3033 14.6627 67.4497 14.7275 67.5848 14.8007C67.7199 14.8739 67.8353 14.9527 67.931 15.0371C68.0267 15.1216 68.0999 15.2201 68.1506 15.3327C68.2012 15.4453 68.2266 15.5691 68.2266 15.7042C68.2266 15.9857 68.1337 16.2081 67.9479 16.3713C67.7621 16.5346 67.5201 16.65 67.2217 16.7176C66.9233 16.7851 66.6052 16.8189 66.2675 16.8189C66.0873 16.8189 65.8875 16.8048 65.6679 16.7767C65.4483 16.7485 65.2175 16.7091 64.9755 16.6584C64.7334 16.6078 64.4857 16.5459 64.2323 16.4727C63.979 16.3995 63.7229 16.3179 63.4639 16.2278L63.5315 17.6633C63.8242 17.7647 64.0916 17.8463 64.3337 17.9082C64.5758 17.9701 64.8066 18.0236 65.0261 18.0687C65.2457 18.1137 65.4596 18.1419 65.6679 18.1531C65.8762 18.1644 66.0873 18.17 66.3012 18.17C66.7966 18.17 67.2639 18.1221 67.703 18.0264C68.1421 17.9307 68.5249 17.7816 68.8515 17.5789C69.178 17.3762 69.4341 17.1116 69.6199 16.7851C69.8057 16.4586 69.8986 16.0701 69.8986 15.6198C69.8986 15.282 69.8507 14.9921 69.755 14.75C69.6593 14.5079 69.527 14.2968 69.3581 14.1167ZM76.3755 16.6416C76.2798 16.6584 76.1841 16.6753 76.0883 16.6922C75.9926 16.7091 75.8998 16.7204 75.8097 16.726C75.7196 16.7316 75.6352 16.7344 75.5564 16.7344C75.2636 16.7344 75.0131 16.6838 74.8048 16.5824C74.5965 16.4811 74.4361 16.3319 74.3235 16.1349C74.2109 15.9379 74.1546 15.6986 74.1546 15.4171V10.7389H76.5359L76.7217 9.38778H74.1546V6.71933L72.4319 7.32733V9.38778H71.1315L70.9457 10.7389H72.4319V15.7718C72.4319 16.1546 72.4826 16.4839 72.5839 16.7598C72.6852 17.0356 72.8175 17.2636 72.9808 17.4438C73.1441 17.6239 73.3355 17.7647 73.555 17.866C73.7746 17.9673 74.0082 18.0405 74.2559 18.0856C74.5036 18.1306 74.7457 18.1531 74.9821 18.1531C75.1623 18.1531 75.3396 18.1475 75.5141 18.1362C75.6886 18.125 75.8491 18.1081 75.9955 18.0856C76.1418 18.063 76.2798 18.0377 76.4092 18.0096C76.5387 17.9814 76.6485 17.9561 76.7386 17.9336L76.8399 16.5318C76.7836 16.5543 76.7161 16.574 76.6372 16.5909C76.5584 16.6078 76.4712 16.6247 76.3755 16.6416ZM81.2901 16.7598C81.2395 16.7654 81.1803 16.7682 81.1128 16.7682C80.9664 16.7682 80.8426 16.7457 80.7412 16.7007C80.6399 16.6556 80.5555 16.5853 80.4879 16.4896C80.4203 16.3939 80.3725 16.2728 80.3443 16.1264C80.3162 15.9801 80.3021 15.8056 80.3021 15.6029V5.25L78.5795 5.50333V16.3629C78.5795 16.6894 78.6245 16.9681 78.7146 17.1989C78.8046 17.4297 78.9341 17.6183 79.103 17.7647C79.2719 17.911 79.4718 18.0152 79.7026 18.0771C79.9334 18.139 80.1839 18.17 80.4541 18.17C80.5892 18.17 80.7187 18.1644 80.8426 18.1531C80.9664 18.1419 81.0875 18.125 81.2057 18.1024C81.3239 18.0799 81.4224 18.0574 81.5012 18.0349L81.6701 16.7007L81.4675 16.7344C81.3999 16.7457 81.3408 16.7541 81.2901 16.7598ZM90.9421 16.9202C91.0322 16.909 91.1279 16.8864 91.2292 16.8527L91.0435 17.9842C90.9872 18.0067 90.9224 18.0264 90.8492 18.0433C90.7761 18.0602 90.6944 18.0799 90.6044 18.1024C90.5143 18.125 90.4214 18.139 90.3257 18.1447C90.23 18.1503 90.1315 18.1531 90.0301 18.1531C89.6698 18.1531 89.3489 18.094 89.0675 17.9758C88.786 17.8576 88.5664 17.6661 88.4088 17.4016C88.3243 17.2608 88.2652 17.0947 88.2258 16.9033C88.1189 17.0272 88.0091 17.1482 87.8937 17.258C87.5841 17.5507 87.2294 17.7759 86.8297 17.9336C86.43 18.0912 85.9543 18.17 85.4026 18.17C84.8058 18.17 84.3076 18.0574 83.9079 17.8322C83.5082 17.607 83.2098 17.3115 83.0128 16.9456C82.8158 16.5796 82.7172 16.1827 82.7172 15.7549C82.7172 15.3045 82.8439 14.8907 83.0972 14.5136C83.3506 14.1364 83.7362 13.8239 84.2541 13.5762C84.7721 13.3285 85.4251 13.1821 86.2132 13.1371L88.1864 13.0048V12.5826C88.1864 12.2561 88.1555 11.9718 88.0879 11.7297C88.0203 11.4876 87.9078 11.2878 87.7501 11.1301C87.5925 10.9725 87.3758 10.8543 87.0999 10.7755C86.8241 10.6967 86.4835 10.6573 86.0781 10.6573C85.8529 10.6573 85.6249 10.6657 85.3941 10.6826C85.1633 10.6995 84.9297 10.7304 84.6932 10.7755C84.4568 10.8205 84.2119 10.8768 83.9586 10.9444C83.7052 11.0119 83.4378 11.0964 83.1564 11.1977L83.359 9.76215C83.6405 9.64956 83.9361 9.55104 84.2457 9.46659C84.5553 9.38215 84.8846 9.31741 85.2337 9.27237C85.5827 9.22733 85.9374 9.20481 86.2977 9.20481C86.7931 9.20481 87.2378 9.24985 87.6319 9.33993C88.026 9.43 88.3666 9.55948 88.6537 9.72837C88.9408 9.89726 89.1744 10.1056 89.3546 10.3533C89.5347 10.601 89.6698 10.8881 89.7599 11.2146C89.85 11.5411 89.895 11.9014 89.895 12.2955L89.8612 15.7746C89.85 16.1912 89.9119 16.4896 90.047 16.6697C90.1821 16.8499 90.4017 16.9399 90.7057 16.9399C90.7732 16.9399 90.8521 16.9343 90.9421 16.923V16.9202ZM88.1752 15.9097L88.1836 14.2349H86.7058C86.1541 14.2349 85.715 14.2799 85.3885 14.37C85.062 14.4601 84.8255 14.6008 84.6792 14.7922C84.5328 14.9836 84.4596 15.2482 84.4596 15.586C84.4596 15.845 84.5159 16.0673 84.6285 16.2531C84.7411 16.4389 84.9072 16.5824 85.1267 16.6838C85.3463 16.7851 85.6137 16.8358 85.9289 16.8358C86.1766 16.8358 86.4159 16.8133 86.6467 16.7682C86.8775 16.7232 87.0971 16.65 87.3054 16.5487C87.5137 16.4473 87.7107 16.3235 87.8965 16.1771C87.995 16.0983 88.0879 16.0082 88.178 15.9125L88.1752 15.9097ZM99.4541 9.55385C99.0263 9.31741 98.4858 9.19919 97.8328 9.19919C97.3486 9.19919 96.8673 9.27519 96.3888 9.42719C95.9103 9.57919 95.4571 9.79593 95.0292 10.0774C94.866 10.1844 94.7084 10.3026 94.5564 10.4236V9.21607L92.8337 9.46941V17.9983H94.5564V11.5833C94.7224 11.4876 94.8913 11.3976 95.0715 11.3187C95.3135 11.2118 95.5556 11.1189 95.7977 11.0401C96.0398 10.9613 96.2818 10.9021 96.5239 10.8627C96.766 10.8233 96.9996 10.8036 97.2248 10.8036C97.5401 10.8036 97.8103 10.8459 98.0355 10.9303C98.2607 11.0147 98.4464 11.1414 98.5928 11.3103C98.7392 11.4792 98.8461 11.6931 98.9137 11.9521C98.9812 12.211 99.015 12.515 99.015 12.8641V17.9983H100.738V12.5094C100.738 11.7438 100.631 11.1189 100.417 10.6347C100.203 10.1506 99.882 9.7903 99.4541 9.55385ZM110.922 5.26689V18.0011H109.52L109.309 17.2214C109.182 17.3143 109.055 17.4016 108.929 17.4776C108.546 17.714 108.155 17.8885 107.755 18.0011C107.355 18.1137 106.93 18.17 106.48 18.17C105.703 18.17 105.036 17.9983 104.479 17.6549C103.921 17.3115 103.493 16.8245 103.195 16.194C102.897 15.5635 102.747 14.8147 102.747 13.9478C102.747 12.9344 102.944 12.0759 103.339 11.3722C103.733 10.6685 104.253 10.1309 104.901 9.75933C105.548 9.38778 106.249 9.202 107.003 9.202C107.431 9.202 107.823 9.23859 108.177 9.31178C108.532 9.38496 108.856 9.47785 109.148 9.59044C109.165 9.59607 109.182 9.60452 109.199 9.61296V5.50333L110.922 5.26689ZM109.199 16.1124V10.9078C109.112 10.8768 109.019 10.8402 108.937 10.8149C108.673 10.7304 108.411 10.6685 108.152 10.6291C107.893 10.5897 107.623 10.57 107.341 10.57C106.756 10.57 106.252 10.691 105.83 10.9331C105.407 11.1752 105.084 11.5299 104.859 11.9971C104.633 12.4644 104.521 13.047 104.521 13.7451C104.521 14.4432 104.622 15.0033 104.825 15.4593C105.027 15.9153 105.32 16.2531 105.703 16.4727C106.086 16.6922 106.547 16.802 107.088 16.802C107.448 16.802 107.851 16.7204 108.295 16.5571C108.58 16.453 108.881 16.301 109.199 16.1124Z" fill="#D4EEFC"/>
</g>
<defs>
<clipPath id="clip0_5918_1196">
<rect width="68" height="14" fill="white" transform="translate(43 5)"/>
</clipPath>
</defs>
</svg>

<svg xmlns="http://www.w3.org/2000/svg" viewBox="0 0 117 24"><path fill="#1767CE" d="M0 0h117v24H0z"/><path fill="#fff" d="M6 17.997V5.998h4v12H6Zm9.244-10.089 2.264 10.09H13.2l-2.704-12h2.417a2.276 2.276 0 0 1 1.512.55c.422.346.66.826.82 1.36ZM18 17.998v-12h4v12h-4Zm7.01-7.437a2.382 2.382 0 0 1-2.4-2.4 2.301 2.301 0 0 1 .322-1.2A2.41 2.41 0 0 1 26.21 6.1c.356.21.653.506.862.862.215.363.326.778.321 1.2a2.35 2.35 0 0 1-.321 1.208 2.4 2.4 0 0 1-.862.87 2.3 2.3 0 0 1-1.2.321ZM28 17.997V5.998h4v12h-4Zm8.974-5.441c.01.011.095.15.253.414s.364.602.617 1.014a315.936 315.936 0 0 1 1.597 2.62c.247.41.529.875.845 1.393H35.96c-.27-.44-.516-.836-.736-1.191-.22-.355-.453-.738-.7-1.15-.248-.41-.493-.81-.736-1.2-.242-.388-.45-.73-.625-1.022-.175-.292-.296-.49-.363-.591a1.747 1.747 0 0 1-.287-.845c.016-.29.11-.57.27-.812.067-.112.191-.312.371-.6a182.106 182.106 0 0 0 1.37-2.23l.7-1.158.736-1.2h4.326l-3.346 5.459a1.08 1.08 0 0 0-.17.54c.012.203.083.397.204.559Z"/><g clip-path="url(#a)"><path fill="#D4EEFC" d="M52.165 6.01h1.757L49.75 18.001h-2.195L43.4 6.01h1.892l2.465 7.397c.135.383.268.791.397 1.225.13.433.256.87.38 1.309l.186.672a90.108 90.108 0 0 1 .549-1.922c.13-.428.256-.833.38-1.216l2.516-7.465Zm9.652 6.012c.141.608.172 1.306.093 2.095h-6.102c.022.43.081.802.183 1.114.13.394.32.707.574.938.253.23.566.394.937.49.372.095.81.143 1.317.143.248 0 .496-.014.744-.042.247-.028.49-.073.726-.135.236-.062.464-.133.684-.211l.65-.237-.118 1.3a6.331 6.331 0 0 1-.912.389 5.701 5.701 0 0 1-.971.228 8.24 8.24 0 0 1-1.191.076c-.946 0-1.745-.166-2.398-.498a3.303 3.303 0 0 1-1.478-1.47c-.332-.647-.498-1.432-.498-2.356 0-.698.093-1.331.279-1.9a4.14 4.14 0 0 1 .81-1.46c.355-.406.785-.721 1.292-.946.507-.225 1.081-.338 1.723-.338.642 0 1.213.107 1.714.32a3.06 3.06 0 0 1 1.241.955c.327.422.56.937.701 1.545Zm-5.759-.092c-.104.275-.172.61-.214.988h4.442c0-.338-.04-.656-.124-.946-.13-.45-.357-.802-.684-1.056-.326-.253-.76-.38-1.3-.38s-.957.116-1.318.346c-.36.231-.627.58-.802 1.048Zm13.3 2.187a2.537 2.537 0 0 0-.591-.465 4.517 4.517 0 0 0-.71-.33c-.18-.055-.357-.114-.531-.176a9.301 9.301 0 0 0-.524-.17c-.174-.05-.343-.104-.506-.16a3.684 3.684 0 0 1-.448-.186 2.994 2.994 0 0 1-.397-.253 1.113 1.113 0 0 1-.287-.32.814.814 0 0 1-.11-.423c0-.18.04-.335.118-.464a.961.961 0 0 1 .355-.33c.158-.09.346-.157.566-.202.22-.046.47-.068.751-.068a5.293 5.293 0 0 1 .887.076c.175.028.35.065.524.11.174.045.351.095.532.152.18.056.343.118.49.186l.118-1.368a7.977 7.977 0 0 0-.634-.237 6.179 6.179 0 0 0-.633-.169 5.057 5.057 0 0 0-.633-.093 7.626 7.626 0 0 0-.617-.025c-.507 0-.968.053-1.385.16-.416.107-.78.265-1.09.473-.309.209-.548.473-.717.794-.169.321-.253.701-.253 1.14 0 .315.045.594.135.836.09.242.208.448.355.617.146.168.318.318.515.447.197.13.408.24.633.33a15.182 15.182 0 0 0 .785.261 31.179 31.179 0 0 1 .743.237c.119.04.234.076.347.11.157.056.304.12.439.194.135.073.25.152.346.236a.865.865 0 0 1 .296.667c0 .282-.093.504-.28.667a1.62 1.62 0 0 1-.725.347 4.317 4.317 0 0 1-.954.1c-.18 0-.38-.013-.6-.041a8.932 8.932 0 0 1-.693-.119c-.242-.05-.49-.112-.743-.185s-.51-.155-.768-.245l.068 1.435c.292.102.56.183.802.245s.473.116.692.16c.22.046.434.074.642.085.208.011.42.017.633.017.496 0 .963-.048 1.402-.144.44-.095.822-.244 1.148-.447.327-.203.583-.467.769-.794.186-.326.279-.715.279-1.165 0-.338-.048-.628-.144-.87a1.978 1.978 0 0 0-.397-.633Zm7.017 2.525-.287.05a2.491 2.491 0 0 1-.278.034c-.09.006-.175.008-.254.008-.292 0-.543-.05-.751-.152a1.09 1.09 0 0 1-.482-.447 1.425 1.425 0 0 1-.168-.718V10.74h2.38l.187-1.351h-2.567V6.719l-1.723.608v2.06h-1.3l-.186 1.352h1.486v5.033c0 .383.05.712.152.988.101.276.233.504.397.684.163.18.355.32.574.422.22.101.453.175.7.22.249.045.49.067.727.067.18 0 .358-.005.532-.017a5.503 5.503 0 0 0 .895-.126c.13-.029.24-.054.33-.076l.1-1.402a1.266 1.266 0 0 1-.202.059 7.353 7.353 0 0 1-.261.05Zm4.915.118c-.05.005-.11.008-.177.008a.914.914 0 0 1-.372-.067.61.61 0 0 1-.253-.211.927.927 0 0 1-.144-.364 2.815 2.815 0 0 1-.042-.523V5.25l-1.723.253v10.86c0 .326.046.605.136.836.09.23.22.42.388.566.169.146.369.25.6.312.23.062.48.093.751.093.135 0 .265-.006.389-.017a3.716 3.716 0 0 0 .658-.118l.17-1.334-.204.033c-.067.012-.126.02-.177.026Zm9.652.16a1.5 1.5 0 0 0 .287-.067l-.186 1.131a1.336 1.336 0 0 1-.194.06c-.073.016-.155.036-.245.058-.09.023-.183.037-.278.043a5.061 5.061 0 0 1-.296.008c-.36 0-.681-.059-.963-.177a1.364 1.364 0 0 1-.658-.574 1.58 1.58 0 0 1-.183-.499 4.97 4.97 0 0 1-.332.355c-.31.293-.665.518-1.064.676-.4.157-.876.236-1.427.236-.597 0-1.095-.113-1.495-.338-.4-.225-.698-.52-.895-.886a2.473 2.473 0 0 1-.296-1.191c0-.45.127-.864.38-1.241.254-.378.64-.69 1.157-.938.518-.248 1.171-.394 1.96-.439l1.972-.132v-.422c0-.327-.03-.611-.098-.853a1.338 1.338 0 0 0-.338-.6c-.157-.158-.374-.276-.65-.355a3.774 3.774 0 0 0-1.022-.118c-.225 0-.453.009-.684.026a6.13 6.13 0 0 0-.7.092 9.905 9.905 0 0 0-1.537.422l.202-1.435c.282-.112.577-.211.887-.295.31-.085.639-.15.988-.195a8.305 8.305 0 0 1 1.064-.067c.495 0 .94.045 1.334.135.394.09.735.22 1.022.388.287.17.52.378.7.625.18.248.316.535.406.862.09.326.135.686.135 1.08l-.034 3.48c-.011.416.05.715.186.895.135.18.355.27.659.27.067 0 .146-.006.236-.017v-.003Zm-2.767-1.01.009-1.675h-1.478c-.552 0-.991.045-1.318.135-.326.09-.563.23-.709.422-.146.192-.22.456-.22.794 0 .259.057.481.17.667.112.186.278.33.498.43.22.102.487.153.802.153.248 0 .487-.023.718-.068.23-.045.45-.118.658-.22a2.757 2.757 0 0 0 .873-.636l-.003-.002Zm11.28-6.356c-.429-.237-.97-.355-1.622-.355-.484 0-.966.076-1.444.228a5.487 5.487 0 0 0-1.36.65c-.163.107-.32.226-.473.347V9.216l-1.722.253V18h1.722v-6.416a5.22 5.22 0 0 1 .516-.264c.242-.107.484-.2.726-.279.242-.079.484-.138.726-.177.242-.04.476-.06.7-.06.316 0 .586.043.811.127.226.085.411.211.558.38.146.17.253.383.32.642.068.259.102.563.102.912v5.134h1.723V12.51c0-.765-.107-1.39-.321-1.874-.214-.484-.535-.845-.963-1.081Zm11.467-4.287V18h-1.402l-.211-.78c-.127.093-.254.18-.38.257a4.61 4.61 0 0 1-1.174.523c-.4.113-.825.169-1.275.169-.777 0-1.444-.172-2.001-.515a3.348 3.348 0 0 1-1.284-1.461c-.298-.63-.448-1.38-.448-2.246 0-1.014.197-1.872.592-2.576.394-.704.914-1.241 1.562-1.613a4.15 4.15 0 0 1 2.102-.557 5.815 5.815 0 0 1 2.145.388c.017.006.034.015.051.023v-4.11l1.723-.236Zm-1.723 10.845v-5.204c-.087-.031-.18-.068-.262-.093a5.083 5.083 0 0 0-1.596-.245c-.585 0-1.089.121-1.511.363a2.376 2.376 0 0 0-.971 1.064c-.226.467-.338 1.05-.338 1.748s.101 1.258.304 1.714c.202.456.495.794.878 1.014.383.22.844.329 1.385.329.36 0 .763-.082 1.207-.245.285-.104.586-.256.904-.445Z"/></g><defs><clipPath id="a"><path fill="#fff" d="M43 5h68v14H43z"/></clipPath></defs></svg>
